X:6
T:Zyflucht-Juiz  C 2+
S:Hans Durrer-von FlÃ¼eh  (25.6.1921-16.8.2002)
S:Dirigenten-Notiz  Edi Gasser
%C:Unterwalden (CH)
M:6/8
R:Naturjodel
L:1/8
K:C
[P:A] "mÃ¤ssig bewegt" c3E G c/2d/2 | e3 E G e | d3F G e/2d/2 | c>e c/2E/2 G2z | c3E G c/2d/2 | 
e3E G e | d>G g>f e d | c4zz | c3E G c/2d/2 | e3 E G e | 
d3F G e/2d/2 | c>e c/2E/2 G2z | c3E G c/2d/2 | e3E G e | d>G g>f e d | !fermata!c4zz || 
L:1/8
M:3/4
[P:B] G/2G/2 A/2G/2 | F>Gd2 G/2A/2 G/2F/2 | E>Gc2Ge | f>G Bf gf | e>Gc2 G/2A/2 G/2F/2 | 
E>G ce Ge | d>c BG ed | c3zG/2G/2 A/2G/2 | F>Gd2 G/2A/2 G/2F/2 | E>Gc2Ge | 
f>G Bf gf | e>Gc2 G/2G/2 A/2G/2 | F>Gd2 G/2A/2 G/2F/2 | E>G ce Ge | d>c BG ed | c4z2 ||
M:3/4
[P:C] C>G, CD E/2G/2 c/2d/2 | e>cG2 E/2c/2 G/2e/2 | d>Gd2 F/2B/2 G/2e/4d/4 | c>G !breath!c4 | C>G, CD E/2G/2 c/2d/2
e>c/2e/4 G2 E/2c/2 G/2e/2 | d>G d/2g/2 f/2G/2 ed | c4z2 | C>G, CD E/2G/2 c/2d/2 | e>cG2 E/2c/2 G/2e/2 | 
d>Gd2 F/2B/2 G/2e/4d/4 | c>G !breath!c4 | C>G, CD E/2G/2 c/2d/2 | e>c/2e/4 G2 E/2c/2 G/2e/2 | d>G d/2g/2 f/2G/2 ed | !fermata!c4z2 |] 
W:
W:Reihenfolge: A-B-C
%W:Musik: Hans Durrer-von FlÃ¼eh, bearbeitet: Karl Anderhalden
%W:UJV-Naturjodelsammlung: Code-Nr: 11-03
%W:http://www.naturjodler.ch/code 11.htm  (with AUDIO)
%May 7, 2018

